src/standard/hardware/tablet.svg

<svg xmlns="http://www.w3.org/2000/svg" viewBox="0 0 36 36">
  <path d="M18 8.62a.62.62 0 1 0-.62-.62.61.61 0 0 0 .62.62Z"/>
  <path d="M28 4.38H8a.62.62 0 0 0-.62.62v26a.62.62 0 0 0 .62.62h20a.62.62 0 0 0 .62-.62V5a.62.62 0 0 0-.62-.62Zm-.62 26H8.62V5.62h18.76Z"/>
  <path d="M16 28.62h4a.62.62 0 0 0 0-1.24h-4a.62.62 0 1 0 0 1.24Z"/>
</svg>

<svg id="ae36d952-98c9-4055-bdc7-38f8fe238a88" data-name="Icon" xmlns="http://www.w3.org/2000/svg" viewBox="0 0 36 36">
  <path d="M18,8.62A.62.62,0,1,0,17.38,8,.61.61,0,0,0,18,8.62Z"/>
  <g>
    <path d="M28,4.38H8A.62.62,0,0,0,7.38,5V31a.62.62,0,0,0,.62.62H28a.62.62,0,0,0,.62-.62V5A.62.62,0,0,0,28,4.38Zm-.62,26H8.62V5.62H27.38Z"/>
    <path d="M16,28.62h4a.62.62,0,0,0,0-1.24H16a.62.62,0,1,0,0,1.24Z"/>
  </g>
</svg>
